src/assets/images/icon-brand-recognition.svg

<svg width="40" height="40" viewBox="0 0 40 40" fill="none" xmlns="http://www.w3.org/2000/svg">
<g clip-path="url(#clip0_305_72)">
<path d="M36.406 11.719C37.054 11.719 37.578 12.243 37.578 12.891V37.656H38.828C38.9819 37.656 39.1343 37.6863 39.2765 37.7452C39.4187 37.8041 39.5479 37.8904 39.6567 37.9993C39.7656 38.1081 39.8519 38.2373 39.9108 38.3795C39.9697 38.5217 40 38.6741 40 38.828C40 38.9819 39.9697 39.1343 39.9108 39.2765C39.8519 39.4187 39.7656 39.5479 39.6567 39.6567C39.5479 39.7656 39.4187 39.8519 39.2765 39.9108C39.1343 39.9697 38.9819 40 38.828 40H1.172C1.01809 40 0.865689 39.9697 0.723495 39.9108C0.581302 39.8519 0.452101 39.7656 0.343271 39.6567C0.234441 39.5479 0.148112 39.4187 0.0892132 39.2765C0.0303147 39.1343 0 38.9819 0 38.828C0 38.6741 0.0303147 38.5217 0.0892132 38.3795C0.148112 38.2373 0.234441 38.1081 0.343271 37.9993C0.452101 37.8904 0.581302 37.8041 0.723495 37.7452C0.865689 37.6863 1.01809 37.656 1.172 37.656H2.422V24.61C2.422 23.963 2.946 23.438 3.594 23.438H8.28C8.928 23.438 9.452 23.963 9.452 24.61V37.657H11.796V29.297C11.796 28.651 12.32 28.126 12.968 28.126H17.655C18.303 28.126 18.827 28.651 18.827 29.298V37.658H21.171V19.921C21.171 19.274 21.695 18.749 22.343 18.749H27.03C27.678 18.749 28.202 19.274 28.202 19.921V37.655H30.546V12.891C30.546 12.243 31.07 11.719 31.718 11.719H36.406ZM35.234 14.063H32.891V37.656H35.234V14.063V14.063ZM25.859 21.093H23.516V37.656H25.859V21.094V21.093ZM16.484 30.469H14.141V37.656H16.484V30.47V30.469ZM7.11 25.78H4.766V37.655H7.109V25.781L7.11 25.78ZM34.062 0C34.9942 0.00105869 35.8879 0.371833 36.547 1.03098C37.2062 1.69013 37.5769 2.58382 37.578 3.516C37.5767 4.448 37.2058 5.34144 36.5467 6.00037C35.8875 6.6593 34.994 7.02994 34.062 7.031C33.342 7.031 32.673 6.814 32.115 6.441L28.042 9.496C28.206 10.0224 28.2441 10.5801 28.1531 11.1239C28.0621 11.6677 27.8446 12.1826 27.5181 12.627C27.1917 13.0714 26.7654 13.4328 26.2736 13.6823C25.7819 13.9317 25.2384 14.0621 24.687 14.063C24.1629 14.0633 23.6455 13.9457 23.173 13.719L18.484 18.407C18.704 18.866 18.828 19.38 18.828 19.922C18.8267 20.8538 18.4559 21.7471 17.797 22.406C17.1381 23.0649 16.2448 23.4357 15.313 23.437C14.815 23.4362 14.3229 23.3297 13.8691 23.1246C13.4153 22.9195 13.0102 22.6205 12.6805 22.2473C12.3509 21.874 12.1041 21.4351 11.9567 20.9594C11.8092 20.4838 11.7643 19.9823 11.825 19.488L8.375 17.764C7.72123 18.3968 6.84688 18.7504 5.937 18.75C5.005 18.7487 4.11156 18.3778 3.45263 17.7187C2.7937 17.0595 2.42306 16.166 2.422 15.234C2.42332 14.3022 2.79408 13.4089 3.45298 12.75C4.11188 12.0911 5.00517 11.7203 5.937 11.719C6.43498 11.7198 6.92712 11.8263 7.38091 12.0314C7.8347 12.2365 8.23981 12.5355 8.56948 12.9087C8.89915 13.282 9.14587 13.7209 9.29334 14.1966C9.44082 14.6722 9.48569 15.1737 9.425 15.668L12.875 17.393C13.3891 16.8949 14.0435 16.5662 14.7501 16.4512C15.4567 16.3363 16.1815 16.4405 16.827 16.75L21.516 12.062C21.2892 11.5892 21.1716 11.0714 21.172 10.547C21.1731 9.615 21.5437 8.72145 22.2026 8.06234C22.8616 7.40322 23.755 7.03232 24.687 7.031C25.407 7.031 26.077 7.249 26.635 7.621L30.708 4.567C30.544 4.04056 30.5059 3.48294 30.5969 2.9391C30.6879 2.39526 30.9054 1.88041 31.2319 1.43603C31.5583 0.991646 31.9846 0.630174 32.4764 0.38074C32.9681 0.131307 33.5116 0.000890024 34.063 0L34.062 0ZM15.312 18.75C14.666 18.75 14.141 19.276 14.141 19.922C14.141 20.568 14.666 21.094 15.312 21.094C15.959 21.094 16.484 20.568 16.484 19.922C16.484 19.276 15.959 18.75 15.312 18.75ZM5.938 14.062C5.291 14.062 4.766 14.588 4.766 15.234C4.766 15.88 5.291 16.406 5.937 16.406C6.584 16.406 7.109 15.88 7.109 15.234C7.109 14.588 6.584 14.063 5.938 14.063V14.062ZM24.688 9.375C24.041 9.375 23.516 9.901 23.516 10.547C23.516 11.193 24.041 11.719 24.688 11.719C25.334 11.719 25.859 11.193 25.859 10.547C25.859 9.901 25.334 9.375 24.687 9.375H24.688ZM34.063 2.344C33.416 2.344 32.891 2.87 32.891 3.516C32.891 4.162 33.416 4.687 34.063 4.687C34.709 4.687 35.234 4.162 35.234 3.516C35.234 2.87 34.709 2.344 34.062 2.344H34.063Z" fill="#2BD0D0"/>
</g>
<defs>
<clipPath id="clip0_305_72">
<rect width="40" height="40" fill="white"/>
</clipPath>
</defs>
</svg>

<svg xmlns="http://www.w3.org/2000/svg" width="40" height="40"><path fill="#2BD0D0" d="M36.406 11.719c.648 0 1.172.524 1.172 1.172v24.765h1.25a1.172 1.172 0 110 2.344H1.172a1.172 1.172 0 110-2.344h1.25V24.61c0-.647.524-1.172 1.172-1.172H8.28c.648 0 1.172.525 1.172 1.172v13.047h2.344v-8.36c0-.646.524-1.171 1.172-1.171h4.687c.648 0 1.172.525 1.172 1.172v8.36h2.344V19.921c0-.647.524-1.172 1.172-1.172h4.687c.648 0 1.172.525 1.172 1.172v17.734h2.344V12.891c0-.648.524-1.172 1.172-1.172zm-1.172 2.344h-2.343v23.593h2.343V14.063zm-9.375 7.03h-2.343v16.563h2.343V21.094zm-9.375 9.376h-2.343v7.187h2.343V30.47zM7.11 25.78H4.766v11.875h2.343V25.781zM34.062 0a3.52 3.52 0 013.516 3.516 3.52 3.52 0 01-3.516 3.515c-.72 0-1.389-.217-1.947-.59l-4.073 3.055a3.52 3.52 0 01-3.355 4.567 3.496 3.496 0 01-1.514-.344l-4.689 4.688c.22.459.344.973.344 1.515a3.52 3.52 0 01-3.515 3.515 3.52 3.52 0 01-3.488-3.949l-3.45-1.724a3.503 3.503 0 01-2.438.986 3.52 3.52 0 01-3.515-3.516 3.52 3.52 0 013.515-3.515 3.52 3.52 0 013.488 3.949l3.45 1.725a3.503 3.503 0 013.952-.643l4.689-4.688a3.496 3.496 0 01-.344-1.515 3.52 3.52 0 013.515-3.516c.72 0 1.39.218 1.948.59l4.073-3.054A3.52 3.52 0 0134.063 0zm-18.75 18.75c-.646 0-1.171.526-1.171 1.172 0 .646.525 1.172 1.171 1.172.647 0 1.172-.526 1.172-1.172 0-.646-.525-1.172-1.172-1.172zm-9.374-4.688c-.647 0-1.172.526-1.172 1.172 0 .646.525 1.172 1.171 1.172.647 0 1.172-.526 1.172-1.172 0-.646-.525-1.171-1.171-1.171zm18.75-4.687c-.647 0-1.172.526-1.172 1.172 0 .646.525 1.172 1.172 1.172.646 0 1.171-.526 1.171-1.172 0-.646-.525-1.172-1.172-1.172zm9.375-7.031c-.647 0-1.172.526-1.172 1.172 0 .646.525 1.171 1.172 1.171.646 0 1.171-.525 1.171-1.171s-.525-1.172-1.172-1.172z"/></svg>
